images/icons/telegram-white.svg

<svg width="40" height="44" viewBox="0 0 40 44" fill="none" xmlns="http://www.w3.org/2000/svg">
<g clip-path="url(#clip0)">
<path d="M32.2011 41.1616C31.8886 41.1616 31.5783 41.0631 31.3121 40.8708L21.2545 33.6024L15.8602 37.7377C15.4371 38.0618 14.8918 38.1435 14.4005 37.9563C13.9099 37.7687 13.5373 37.3358 13.4043 36.7989L10.6957 25.863L1.01775 21.9204C0.408477 21.6721 0.00440915 21.0511 -2.41946e-05 20.3561C-0.00445754 19.6611 0.391588 19.0343 0.997902 18.7772L37.7972 3.17694C37.9642 3.10136 38.1409 3.05773 38.3191 3.04603C38.3829 3.04199 38.4468 3.04199 38.5104 3.04581C38.8794 3.0692 39.2419 3.22934 39.5248 3.52488C39.5541 3.55547 39.582 3.58673 39.6084 3.61935C39.8427 3.90454 39.9715 4.25226 39.9957 4.60651C40.0017 4.69558 40.0012 4.78577 39.9938 4.87596C39.9888 4.94029 39.9801 5.00439 39.9679 5.06804L33.7563 39.7905C33.6565 40.3483 33.3001 40.8152 32.8078 41.0327C32.6125 41.1191 32.4063 41.1616 32.2011 41.1616ZM22.1376 30.1638L31.0965 36.6381L35.9297 9.62014L18.4735 27.5159L22.0954 30.1335C22.1099 30.1431 22.1239 30.1535 22.1376 30.1638ZM14.6796 28.7241L15.8792 33.5666L18.4636 31.5853L15.0795 29.1396C14.9222 29.0262 14.7875 28.885 14.6796 28.7241ZM5.93982 20.3131L12.5852 23.02C13.0613 23.2139 13.4206 23.6403 13.5506 24.1653L14.3934 27.5681C14.432 27.1756 14.599 26.8063 14.8703 26.5281L31.5036 9.47619L5.93982 20.3131Z" fill="#FBFDFF"/>
</g>
<defs>
<clipPath id="clip0">
<path d="M0 0.793945H40V43.4097H0V0.793945Z" fill="white"/>
</clipPath>
</defs>
</svg>

<svg width="40" height="44" fill="none" xmlns="http://www.w3.org/2000/svg"><g clip-path="url(#clip0)"><path d="M32.201 41.162c-.312 0-.623-.099-.889-.291l-10.058-7.269-5.394 4.136a1.505 1.505 0 01-1.46.218 1.651 1.651 0 01-.996-1.157l-2.708-10.936-9.678-3.943C.408 21.672.004 21.051 0 20.356c-.004-.695.392-1.322.998-1.579l36.8-15.6a1.504 1.504 0 011.727.348 1.739 1.739 0 01.469 1.351 1.734 1.734 0 01-.026.192L33.756 39.79a1.667 1.667 0 01-.948 1.243 1.497 1.497 0 01-.607.129zM22.138 30.164l8.958 6.474L35.93 9.62 18.474 27.516l3.621 2.618a.87.87 0 01.043.03zm-7.458-1.44l1.2 4.843 2.584-1.982-3.384-2.445a1.63 1.63 0 01-.4-.416zm-8.74-8.41l6.645 2.706c.476.194.836.62.966 1.145l.842 3.403c.039-.392.206-.762.477-1.04L31.504 9.476 5.94 20.313z" fill="#FBFDFF"/></g><defs><clipPath id="clip0"><path d="M0 .794h40V43.41H0V.794z" fill="#fff"/></clipPath></defs></svg>
